!!!COM:	Bach, Johann Sebastian
!!!CDT:	1685/02/21/-1750/07/28/
!!!OTL@@DE:	Herr Christ, der ein'ge Gottes Sohn
!!!SCT:	BWV 164/6
!!!PC#:	101
!!!AGN:	chorale
**harm	**kern	**kern	**kern	**kern
*	*ICvox	*ICvox	*ICvox	*ICvox
*	*Ibass	*Itenor	*Ialto	*Isoprn
*	*I"Bass	*I"Tenor	*I"Alto	*I"Soprano
*>[A,A,B]	*>[A,A,B]	*>[A,A,B]	*>[A,A,B]	*>[A,A,B]
*>norep[A,B]	*>norep[A,B]	*>norep[A,B]	*>norep[A,B]	*>norep[A,B]
*>A	*>A	*>A	*>A	*>A
*	*	*oclefC4	*oclefC3	*oclefC1
*	*clefF4	*clefGv2	*clefG2	*clefG2
*k[b-e-]	*k[b-e-]	*k[b-e-]	*k[b-e-]	*k[b-e-]
*B-:	*B-:	*B-:	*B-:	*B-:
*M4/4	*M4/4	*M4/4	*M4/4	*M4/4
*met(c)	*met(c)	*met(c)	*met(c)	*met(c)
*MM100	*MM100	*MM100	*MM100	*MM100
I	4B-	4d	4f	4b-
=1	=1	=1	=1	=1
IV	4E-	4e-	4g	4b-
I	4BB-	4f	4b-	4dd
V7	4F	4e-	4a	4cc
vi	4G	4d	4g	4b-
=2	=2	=2	=2	=2
g:ii%65	4C	4e-	4g	4a
V7	4D	4c	4f#	4a
VI;	4E-;	4B-;	4g;	4g;
i	4G	4B-	4g	4dd
=3	=3	=3	=3	=3
B-:ii7	4C	4B-	4g	4ee-
V2	4E-	4A	4fX	4cc
I6	4D	4B-	4f	4dd
V	4F	4A	4f	4cc
=4	=4	=4	=4	=4
I;	2.BB-;	2.d;	2.f;	2.b-;
=:|!	=:|!	=:|!	=:|!	=:|!
*>B	*>B	*>B	*>B	*>B
I	4BB-	4d	4f	4b-
=5	=5	=5	=5	=5
I	4B-	4f	4b-	4dd
vi	4G	4g	4b-	4dd
IV	4E-	4g	4g	4ee-
ii	4C	4e-	4g	4ee-
=6	=6	=6	=6	=6
V6	4AA	4c	4f	4ff
I	4BB-	4B-	4f	4dd
V;	4FF;	4A;	4f;	4cc;
V6	4AA	4c	4f	4ff
=7	=7	=7	=7	=7
I	4BB-	4B-	4f	4dd
I6	4D	4B-	4f	4dd
g:viio7	4F#	4A	4e-	4cc
i	4G	4G	4d	4b-
=8	=8	=8	=8	=8
ii%65	4C	4G	4e-	4a
V	4D	4F#	4d	4a
i;	4GG;	4B-;	4d;	4g;
I	4G	4B	4g	4dd
=9	=9	=9	=9	=9
B-:ii	4c	4c	4g	4ee-
V65	4A	4e-	4fX	4cc
I	4B-	4B-	4f	4dd
V7	4F	4e-	4a	4cc
=10	=10	=10	=10	=10
I;	2.BB-;	2.d;	2.f;	2.b-;
==	==	==	==	==
*-	*-	*-	*-	*-
!!!YOR1: 371 vierstimmige Choralges&auml;nge von Johann Sebastian Bach, 
!!!YOR2: 4th ed. by Alfred D&ouml;rffel (Leipzig: Breitkopf und H&auml;rtel, 
!!!YOR2: c.1875). 178 pp. Plate "V.A.10".  reprint: J.S. Bach, 371 Four-Part 
!!!YOR4: Chorales (New York: Associated Music Publishers, Inc., c.1940).
!!!SMS: B&H, 4th ed, Alfred D&ouml;rffel, c.1875, plate V.A.10
!!!EED:  Craig Stuart Sapp
!!!EEV:  2009/05/22
